X: 10867
T: Drive The Golden Spike
R: hornpipe
M: 4/4
K: Bminor
dc|BFBc c~d2f|(3efe de cAAc|dB~B2 DFBd|fe (3dcB Acdc|
BFBc c~d2f|(3efe de cAAc|dB~B2 DFBd|eA (3cBA B2:|
Bc|dFBd fagf|g4 f2=fe|dB~B2 Bgfe|d4 c2Bc|
dFBd fagf|gfeg fedf|(3efe de ceAc|dBBA A~B2c|
dFBd fagf|gfeg fedf|(3efe de ceAc|d2ed c2Bc|
dFBd fagf|gfeg fedf|(3efe de ceAc|dBBA A~B2c||
dBFB DFBd|cAED CEAc|BGD=C B,DGB|^A2 F3ABc|
dBFB DFBd|cAED CEAc|BFBd cAec|dBBA A~B2c|
dBFB DFBd|cAED CEAc|BGD=C B,DGB|^A2F2 FEDC|
B,3D C2CE|D2G2 F4|A~B3 DFBd|eA (3cBA B2||

